X: 41324
T: Turbulence
R: reel
M: 4/4
K: Eminor
|:eB B2 cBAc|BAGB AGFG|E3F G3A|Begf ed (3Bcd|
eB B2 cBAc|BAGB AGFG|E3F G3A|1 Beed e3d:|2 Beed e2gf||
|:eB B2 eBgB|fB B2 fBeB|gB B2 gBfB|g3f ed (3Bcd|
e3d eg g2|f3e fa a2|b3g af f2|agfd efgf:|

